X: 42255
T: We're A Case (The Bunch Of Us)
R: waltz
M: 3/4
K: Amixolydian
|:c>a a>e c>c|c>a a>c c>B|c>a a>f f>e|e>c c>B B>A:|
|:c>e e>A A2|A>f f>e e>c|e>f f>A A2|A>f e>c B>A:|
|:B>c c>B c>c|B>c c>B c>f|A>c c>B c>c|c>f e>c B>A:|
A>a a>f f>e|e>c c>B c>f|f>e e>c e>f|f>e e>c c>B|
c>a a>f f>e|e>c c>B c>f|f>e e>c c>B|A A3A||

